!!!!SEGMENT: pl-kk--kk-i-380--001_anonim--gaude-mater-polonia.krn
!!!cenid: 16xx:731
!!!COM: Anonim
!!!COM-rismid: pe30004985
!!!CDT:
!!!CNT:
!!!OTL: Gaude Mater Polonia
!!!PDT:
!!!AGN: Sacred
!!!SMS-siglum: PL-Kk
!!!SMS-shelfmark: Kk.I.380
!!!SMS-shelfwork: 001 W
!!!SMS-variant: Canto Imo PL-Kk KK.I.380:0003; Imo alto PL-Kk KK.I.380:0007; Tenore Imo. PL-Kk KK.I.380:0011; Imo Baſso- PL-Kk KK.I.380:0021
!!!SMS-altvar: Canto Imo PL-Kk KK.I.380:0001; Alto PL-Kk KK.I.380:0009; Tenore Imo PL-Kk KK.I.380:0013; [Basso] PL-Kk KK.I.380:0017; [Basso] III PL-Kk KK.I.380:0019
!!!NIFC-rismid: 1001135345
!!!URL-scan: http://repozytorium.nifc.pl/skany/pl-kk-nut--i-380
!!!ONB-nifc: UWAGA: utwory w zbiorze: 1. Gaude Mater Polonia, 2. Deus tuorum militum
!!!key:
**kern	**fba	**text	**text	**text	**text	**text	**text	**kern	**text	**text	**text	**text	**text	**text	**kern	**text	**text	**text	**text	**text	**text	**kern	**text	**text	**text	**text	**text	**text	**kern	**text	**text	**text	**text	**text	**text	**kern	**text	**text	**text	**text	**text	**text
*part6	*	*part6	*part6	*part6	*part6	*part6	*part6	*part5	*part5	*part5	*part5	*part5	*part5	*part5	*part4	*part4	*part4	*part4	*part4	*part4	*part4	*part3	*part3	*part3	*part3	*part3	*part3	*part3	*part2	*part2	*part2	*part2	*part2	*part2	*part2	*part1	*part1	*part1	*part1	*part1	*part1	*part1
*staff6	*	*staff6	*staff6	*staff6	*staff6	*staff6	*staff6	*staff5	*staff5	*staff5	*staff5	*staff5	*staff5	*staff5	*staff4	*staff4	*staff4	*staff4	*staff4	*staff4	*staff4	*staff3	*staff3	*staff3	*staff3	*staff3	*staff3	*staff3	*staff2	*staff2	*staff2	*staff2	*staff2	*staff2	*staff2	*staff1	*staff1	*staff1	*staff1	*staff1	*staff1	*staff1
*Ibass	*	*	*	*	*	*	*	*Itenor	*	*	*	*	*	*	*Itenor	*	*	*	*	*	*	*Ialto	*	*	*	*	*	*	*Ivox	*	*	*	*	*	*	*Ivox	*	*	*	*	*	*
*I"Basso	*	*	*	*	*	*	*	*I"Tenore 2do.	*	*	*	*	*	*	*I"Tenore. Imo.	*	*	*	*	*	*	*I"Imo alto	*	*	*	*	*	*	*I"2do Canto.	*	*	*	*	*	*	*I"Canto 1mo	*	*	*	*	*	*
*I'B	*	*	*	*	*	*	*	*I'T 2	*	*	*	*	*	*	*I'T 1	*	*	*	*	*	*	*I'A 1	*	*	*	*	*	*	*I'S 2	*	*	*	*	*	*	*I'S 1	*	*	*	*	*	*
*clefF4	*	*	*	*	*	*	*	*clefC4	*	*	*	*	*	*	*clefC4	*	*	*	*	*	*	*clefC3	*	*	*	*	*	*	*clefC1	*	*	*	*	*	*	*clefC1	*	*	*	*	*	*
*k[b-]	*	*	*	*	*	*	*	*k[b-]	*	*	*	*	*	*	*k[b-]	*	*	*	*	*	*	*k[b-]	*	*	*	*	*	*	*k[b-]	*	*	*	*	*	*	*k[b-]	*	*	*	*	*	*
*F:	*	*	*	*	*	*	*	*F:	*	*	*	*	*	*	*F:	*	*	*	*	*	*	*F:	*	*	*	*	*	*	*F:	*	*	*	*	*	*	*F:	*	*	*	*	*	*
*M3/1	*	*	*	*	*	*	*	*M3/1	*	*	*	*	*	*	*M3/1	*	*	*	*	*	*	*M3/1	*	*	*	*	*	*	*M3/1	*	*	*	*	*	*	*M3/1	*	*	*	*	*	*
=1	=1	=1	=1	=1	=1	=1	=1	=1	=1	=1	=1	=1	=1	=1	=1	=1	=1	=1	=1	=1	=1	=1	=1	=1	=1	=1	=1	=1	=1	=1	=1	=1	=1	=1	=1	=1	=1	=1	=1	=1	=1	=1
!LO:TX:a:t=III	!	!	!	!	!	!	!	!	!	!	!	!	!	!	!	!	!	!	!	!	!	!	!	!	!	!	!	!	!	!	!	!	!	!	!	!LO:TX:a:t=P:problem=skreślone "2.do"	!	!	!	!	!	!
1F	.	1.Gau-	3.Hic	5.No-	7.Po-	9.ſur-	11.Sit	1c	1.Gau-	3.Hic	5.No-	7.Poſ-	9.Sur-	11.Sit	1c	1.Gau-	3.Hic	5.No-	7.Poſ-	9.Sur-	11.Sit	1f	1.Gau-	3.Hic	5.No-	7.Poſ-	9.Sur-	11.Sit	1a	1.Gau-	3.Hic	5.No-	7.Poſ-	9.Sur-	11.Sit	1cc	1.Gau-	3.Hic	5.No-	7.Poſ-	9.Sur-	11.Sit
1F	.	-de	cer-	-vum	-ſcen-	-dis	Tri-	1c	-de	Cer-	-vum	-cen-	-dis	Tri-	1c	-de	Cer-	-vum	-cen-	-dis	Tri-	1f	-de	cer-	-uum	-cen-	-dis	Tri-	1a	-de	cer-	-vum	-cen-	-dis	Tri-	1a	-de	cer-	-vum	-cen-	-dis	Tri-
1F	.	Ma-	-tans	pan-	-tes	au-	-ni-	1c	Ma-	-tans	pan-	-tes	au-	-ni-	1c	Ma-	-tans	pan-	-tes	au-	-ni-	1c	ma-	-tans	pan-	-tes	au-	-ni-	1a	Ma-	-tans	pan-	-tes	au-	-ni-	1cc	Ma-	-tans	pan-	-tes	au-	-ni-
=2	=2	=2	=2	=2	=2	=2	=2	=2	=2	=2	=2	=2	=2	=2	=2	=2	=2	=2	=2	=2	=2	=2	=2	=2	=2	=2	=2	=2	=2	=2	=2	=2	=2	=2	=2	=2	=2	=2	=2	=2	=2	=2
0F	.	-ter	pro	-dit	e-	-di-	-ta-	0c	-ter	pro	-dit	e-	-di-	-ta-	0A	-ter	pro	-dit	e-	-di-	-ta-	0f	-ter	pro	-dit	e-	-di-	-ta-	0a	-ter	pro	-dit	e-	-di-	-ta-	0cc	-ter	pro	-dit	e-	-di-	-ta-
!	!	!	!	!	!	!	!	!	!	!	!	!	!	!	!	!	!	!	!	!	!	!LO:SIC:v:l:s=-tus:verse 9	!	!	!	!	!	!	!	!	!	!	!	!	!	!	!	!	!	!	!	!
1BB-	.	Po-	iu-	mi-	-ius	-tus	-ti	1d	Po-	iu-	mi-	-ius	-tus	-ti	1d	Po-	iu-	mi-	-ius	-tus	-ti	1f	Po-	iu-	mi-	-ius	-nis	-ti	1b-	po-	iu-	mi-	-ius	-tus	-ti	1dd	po-	Iuſ-	mi-	-uis	-tus	-ti
=3	=3	=3	=3	=3	=3	=3	=3	=3	=3	=3	=3	=3	=3	=3	=3	=3	=3	=3	=3	=3	=3	=3	=3	=3	=3	=3	=3	=3	=3	=3	=3	=3	=3	=3	=3	=3	=3	=3	=3	=3	=3	=3
1.F	.	-lo-	-ſti-	-ra-	me-	red-	glo-	1.c	-lo-	-ſti-	-ra-	me-	red-	glo-	1.c	-lo-	-ſti-	-ra-	me-	red-	glo-	1.f	-lo-	-ſti-	-ra-	me-	red-	glo-	1.a	-lo-	-ſti-	-ra-	me-	red-	glo-	1.cc	-lo-	-ti-	-ra-	me-	red-	glo-
*2\right	*	*	*	*	*	*	*	*2\right	*	*	*	*	*	*	*2\right	*	*	*	*	*	*	*	*	*	*	*	*	*	*2\right	*	*	*	*	*	*	*2\right	*	*	*	*	*	*
2F\	.	-ni-	-ti-	-cu-	-ri-	-di-	-ri-	2c\	-ni-	-ti-	-cu-	-ri-	-di-	-ri-	2c\	-ni-	-ti-	-cu-	-ri-	-di-	-ri-	2c/	-ni-	-ti-	-cu-	-ri-	-di-	-ri-	2a\	-ni-	-ti-	-cu-	-ri-	-di-	-ri-	2cc\	-ni-	-ti-	-cu-	-ri-	-di-	-ri-
!	!	!	!	!	!	!	!	!LO:TX:a:t=P:global:problem=przecinki jako rozdzielacze słów	!	!	!	!	!	!	!	!	!	!	!	!	!	!LO:TX:a:t=P:global:problem=przecinki jako rozdzielacze słów	!	!	!	!	!	!	!	!	!	!	!	!	!	!	!	!	!	!	!	!
!	!	!	!	!	!	!	!	!	!	!	!	!	!	!	!LO:TX:a:t=P:global:problem=przecinki jako rozdzielacze słów	!	!	!	!	!	!	!	!	!	!	!	!	!	!	!	!	!	!	!	!	!	!	!	!	!	!	!
1F	.	-a	-a	-lum	-ta	-tur,	-a	1c,<	-a,	-a,	-lum,	-ta,	-tur,	-a,	1c,<	-a	-a,	-lum,	-ta,	-tur,	-a,	1f,<	-a,	-a	-lum,	-ta,	-tur,	-a,	1a	-a	-a	-lu(m)	-ta	-tur,	-a,	1cc	-a,	-a,	-lum,	-ta,	-tur,	-a,
=4	=4	=4	=4	=4	=4	=4	=4	=4	=4	=4	=4	=4	=4	=4	=4	=4	=4	=4	=4	=4	=4	=4	=4	=4	=4	=4	=4	=4	=4	=4	=4	=4	=4	=4	=4	=4	=4	=4	=4	=4	=4	=4
1BB-	.	pro-	Re-	Splen-	Sa-	Clau-	Laus	1d	pro-	Re-	Splen-	Sa-	Clau-	Laus	1d	Pro-	Re-	ſplen-	ſa-	Clau-	Laus	1f	Pro-	Re-	ſplen-	ſa-	Clau-	Laus	1b-	pro-	Re-	ſplen-	ſa-	Clau-	Laus	1b-	pro-	Re-	ſplen-	ſa-	Clau-	Laus
1BB-	.	-le	-gis	-dor	-lu-	-dis	ho-	1d	-le	-gis	-dor	-lu-	-dis	ho-	1d	-le	-gis	-dor	-lu-	-dis	ho-	1f	-le	-gis	-dor	-lu-	-dis	ho-	1b-	-le	-gis	-dor	-lu-	-dis	ho-	1b-	-le	-giſ	-dor	-lu-	-dis	ho-
1FF	.	fe-	non	in	-tis	greſ-	-nor	1c	fe-	non	in	-tis	greſ-	-nor	1c	fe-	non	in	-tis	greſ-	-nor	1f	fe-	non	in	-tis	greſ-	-nor	1a	fe-	non	in	-tis	greſ-	-nor	1cc	fe-	non	in	-tis	greſ-	-nor
=5	=5	=5	=5	=5	=5	=5	=5	=5	=5	=5	=5	=5	=5	=5	=5	=5	=5	=5	=5	=5	=5	=5	=5	=5	=5	=5	=5	=5	=5	=5	=5	=5	=5	=5	=5	=5	=5	=5	=5	=5	=5	=5
0GG	.	-cun-	ce-	San-	do-	-sus	iu-	0B-	-cun-	ce-	ſan-	do-	-sus	iu-	0B-	-cun-	ce-	ſan-	do-	-sus	iu-	0d	-cun-	ce-	ſan-	do-	-sus	iu-	0g	-cun-	ce-	ſan-	do-	-sus	iu-	0b-	-cun-	ce-	ſan-	do-	-sus	iu-
1C	.	-da	-dit	-cto	-na	Of-	-bi-	(2c\	-da	-dit	-cto	-na	of-	-bi-	(2c\	-da	-dit	-cto	-na	Of-	-bi-	1e-X	-da	-dit	-cto	-na	Of-	-bi-	0g	-da	-dit	-cto	-na	of-	-bi-	(2cc\	-da	-dit	-cto	-na	of-	-bi-
.	.	.	.	.	.	.	.	2B-\)	.	.	.	.	.	.	2B-\)	.	.	.	.	.	.	.	.	.	.	.	.	.	.	.	.	.	.	.	.	2b-\)	.	.	.	.	.	.
=6	=6	=6	=6	=6	=6	=6	=6	=6	=6	=6	=6	=6	=6	=6	=6	=6	=6	=6	=6	=6	=6	=6	=6	=6	=6	=6	=6	=6	=6-	=6	=6	=6	=6	=6	=6	=6	=6	=6	=6	=6	=6	=6
!LO:SIC:v:l:s=ce-:verse 5	!	!	!	!	!	!	!	!LO:SIC:v:l:s=ce-:verse 5	!	!	!	!	!	!	!	!	!	!	!	!	!	!LO:SIC:v:l:s=ce-:verse 5	!	!	!	!	!	!	!	!	!	!	!	!	!	!LO:SIC:v:l:s=ce-:verse 5	!	!	!	!	!	!
0D	.	No-	fu-	Cae-	re-	-fi-	-la-	0A	no-	fu-	Cae-	re-	-fi-	-la-	0A	no-	fu-	Cae-	re-	-fi-	-la-	0d	no-	fu-	cae-	re-	-fi-	-la-	.	.	.	.	.	.	.	1.a	no-	fu-	Cae-	re-	-fi-	-la-
!	!	!	!	!	!	!	!	!	!	!	!	!	!	!	!	!	!	!	!	!	!	!	!	!	!	!	!	!	!LO:SIC:v:l:s=-ce-:verse 5	!	!	!	!	!	!	!	!	!	!	!	!	!
!	!	!	!	!	!	!	!	!	!	!	!	!	!	!	!	!	!	!	!	!	!	!	!	!	!	!	!	!	!LO:TX:a:t=P:problem=# above	!	!	!	!	!	!	!	!	!	!	!	!	!
.	.	.	.	.	.	.	.	.	.	.	.	.	.	.	.	.	.	.	.	.	.	.	.	.	.	.	.	.	1.f#X	no-	fu-	cae-	re-	-fi-	-la-	.	.	.	.	.	.	.
.	.	.	.	.	.	.	.	.	.	.	.	.	.	.	.	.	.	.	.	.	.	.	.	.	.	.	.	.	.	.	.	.	.	.	.	2g/	.	.	.	.	.	.
!LO:SIC:v:l:s=-ri-:verse 5	!	!	!	!	!	!	!	!LO:SIC:v:l:s=-ri-:verse 5	!	!	!	!	!	!	!LO:SIC:v:l:s=-:verse 9	!	!	!	!	!	!	!LO:SIC:v:l:s=-ri-:verse 5	!	!	!	!	!	!	!	!	!	!	!	!	!	!LO:SIC:v:l:s=-ri-:verse 5	!	!	!	!	!	!
!	!	!	!	!	!	!	!	!LO:SIC:v:l:s=-:verse 9	!	!	!	!	!	!	!	!	!	!	!	!	!	!LO:SIC:v:l:s=-:verse 9	!	!	!	!	!	!	!	!	!	!	!	!	!	!	!	!	!	!	!	!
1D	.	-bi-	-ri-	-li-	-fe-	.	-ti-	1A	-bi-	-ri-	-li-	-fe-	-ci-	-ti-	1A	-bi-	-ri-	-li-	-fe-	-ci-	-ti-	1d	-bi-	-ri-	-li-	-fe-	-ci-	-ti-	.	.	.	.	.	.	.	2a\	-bi-	-ri-	-li-	-fe-	.	-ti-
!	!	!	!	!	!	!	!	!	!	!	!	!	!	!	!	!	!	!	!	!	!	!	!	!	!	!	!	!	!LO:SIC:v:l:s=-ri-:verse 5	!	!	!	!	!	!	!	!	!	!	!	!	!
!	!	!	!	!	!	!	!	!	!	!	!	!	!	!	!	!	!	!	!	!	!	!	!	!	!	!	!	!	!LO:SIC:v:l:s=-:verse 9	!	!	!	!	!	!	!	!	!	!	!	!	!
.	.	.	.	.	.	.	.	.	.	.	.	.	.	.	.	.	.	.	.	.	.	.	.	.	.	.	.	.	2f#/	-bi-	-ri-	-li-	-fe-	-ci-	-ti-	2b-\	.	.	.	.	.	.
=7	=7	=7	=7	=7	=7	=7	=7	=7	=7	=7	=7	=7	=7	=7	=7	=7	=7	=7	=7	=7	=7	=7	=7	=7	=7	=7	=7	=7	=7	=7	=7	=7	=7	=7	=7	=7	=7	=7	=7	=7	=7	=7
!LO:SIC:v:l:s=-tus:verse 5	!	!	!	!	!	!	!	!LO:SIC:v:l:s=-runt:verse 7	!	!	!	!	!	!	!LO:SIC:v:l:s=-runt:verse 7	!	!	!	!	!	!	!LO:SIC:v:l:s=-tus:verse 5	!	!	!	!	!	!	!LO:SIC:v:l:s=-tus:verse 5	!	!	!	!	!	!	!LO:SIC:v:l:s=-runt:verse 7	!	!	!	!	!	!
!	!	!	!	!	!	!	!	!LO:SIC:v:l:s=-cum:verse 9	!	!	!	!	!	!	!LO:SIC:v:l:s=-cum:verse 9	!	!	!	!	!	!	!LO:SIC:v:l:s=-runt:verse 7	!	!	!	!	!	!	!LO:SIC:v:l:s=-runt:verse 7	!	!	!	!	!	!	!	!	!	!	!	!	!
!	!	!	!	!	!	!	!	!	!	!	!	!	!	!	!	!	!	!	!	!	!	!LO:SIC:v:l:s=-cum:verse 9	!	!	!	!	!	!	!LO:SIC:v:l:s=-cum:verse 9	!	!	!	!	!	!	!	!	!	!	!	!	!
0.GG;	.	-li	-ae	-cus	-rent	cum	-o	0.G	-li.	-ae.	-tus.	-rent.	-um.	-o.	0.G	-li.	-ae.	-tus.	-rent.	-um,	-o,	0.d	-li,	-ae	-cus,	-rent,	-um,	-o,	0.g	-li,	-ae,	-cus,	-rent,	-um,	-o,	0.g	-li,	-ae,	-tus.	-rent.	cum.	-o.
=8||	=8||	=8||	=8||	=8||	=8||	=8||	=8||	=8||;	=8||	=8||	=8||	=8||	=8||	=8||	=8||;;	=8||	=8||	=8||	=8||	=8||	=8||	=8||;;	=8||	=8||	=8||	=8||	=8||	=8||	=8||	=8||	=8||	=8||	=8||	=8||	=8||	=8||	=8||	=8||	=8||	=8||	=8||	=8||
!	!	!	!	!	!	!	!	!	!	!	!	!	!	!	!	!	!	!	!	!	!	!	!	!	!	!	!	!	!LO:TX:a:t=P:problem=# above	!	!	!	!	!	!	!	!	!	!	!	!	!
1G	.	Sum-	ſtat	Re-	mor-	Mu-	De	1d	Sum-	Stat	Re-	Mor-	Mu-	De	1d	ſum-	ſtat	Re-	Mor-	Mu-	De	1g	ſum-	Stat	Re-	Mor-	Mu-	De	1b#X	Sum-	ſtat	Re-	Mor-	Mu-	De	1dd	Sum-	Stat	Re-	mor-	Mu-	De
!	!	!	!	!	!	!	!	!	!	!	!	!	!	!	!	!	!	!	!	!	!	!	!	!	!	!	!	!	!LO:TX:a:t=P:problem=# above	!	!	!	!	!	!	!	!	!	!	!	!	!
1G	.	-mi	pro	-din-	-te	-to-	Mar-	1d	-mi	pro	-din-	-te	-to-	Mar-	1d	-mi	pro	-din-	-te	-to-	Mar-	1g	-mi	pro	-din-	-te	-to-	Mar-	1b#X	-mi	pro	-din-	-te	-to-	Mar-	1dd	-mi	pro	-din-	-te	-to-	Mar-
!	!	!	!	!	!	!	!	!LO:SIC:v:l:s=prae-:verse 7	!	!	!	!	!	!	!	!	!	!	!	!	!	!	!	!	!	!	!	!	!LO:TX:a:t=P:problem=# above	!	!	!	!	!	!	!LO:TX:t=P:problem=niezgodne piony harmoniczne	!	!	!	!	!	!
1E	6\	re-	ple-	-te-	prae-	-rum	-tÿ-	1e	Re-	ple-	-te-	pre-	-rum	-tÿ-	1c	Re-	ple-	-te-	prae-	-rum	-tÿ-	1g	re-	ple-	-te-	prae-	-rum	-ty-	1cc#X	re-	ple-	-te-	prae-	-rum	-ty-	1cc#X	re-	ple-	-te-	prae-	-rum	-tÿ-
=9	=9	=9	=9	=9	=9	=9	=9	=9	=9	=9	=9	=9	=9	=9	=9	=9	=9	=9	=9	=9	=9	=9	=9	=9	=9	=9	=9	=9	=9	=9	=9	=9	=9	=9	=9	=9	=9	=9	=9	=9	=9	=9
0D	.	gis	-bis	-grat	-uen-	lin-	-ris	0f	gis	-bis	-grat	-uen-	Lin-	-ris	0d	gis	-bis	-grat	-uen-	Lin-	-ris	0a	gis	-bis	-grat	-uen-	lin-	-ris	0dd	gis	-bis	-grat	-ven-	lin-	-ris	0dd	giſ	-bis	-grat	-uen-	Lin-	-ris
1D	.	ma-	in-	cor-	-ti	-gua	vic-	1f	Ma-	in-	Cor-	-ti	-gua	Vic-	1d	ma-	in-	Cor-	-ti	-gua	Vic-	1f	ma-	in-	cor-	-ti	-gua	Vic-	1dd	ma-	in-	cor-	-ti	-gua	Vic-	1dd	ma-	in-	Cor-	-ti	-gua	Vic-
=10	=10	=10	=10	=10	=10	=10	=10	=10	=10	=10	=10	=10	=10	=10	=10	=10	=10	=10	=10	=10	=10	=10	=10	=10	=10	=10	=10	=10	=10	=10	=10	=10	=10	=10	=10	=10	=10	=10	=10	=10	=10	=10
!LO:TX:b:t=P:problem=# below	!	!	!	!	!	!	!	!	!	!	!	!	!	!	!	!	!	!	!	!	!	!	!	!	!	!	!	!	!LO:TX:a:t=P:problem=# above	!	!	!	!	!	!	!	!	!	!	!	!	!
1.A#X	.	-gna-	-iu-	-puſ-	ſu-	ſol-	-to-	1.e	-gna-	-iu-	-pus-	ſu-	ſol-	-to-	1.c	-gna-	-iu-	-puſ-	ſu-	ſo-	-to-	1.a	-gna-	-iu-	-puſ-	ſu-	ſol-	-to-	1.cc#X	-gna-	-iu-	-puſ-	ſu-	ſol-	-to-	1.cc#X	-gna-	-iu-	-pus-	ſu-	ſol-	-to-
*	*	*	*	*	*	*	*	*	*	*	*	*	*	*	*	*	*	*	*	*	*	*2\right	*	*	*	*	*	*	*	*	*	*	*	*	*	*	*	*	*	*	*	*
2A#\	.	-li-	-ri-	-cu-	-bi-	-ui-	-ri-	2e\	-li-	-ri-	-cu-	-bi-	-ui-	-ri-	2c\	-li-	-ri-	-cu-	-bi-	-lui-	-ri-	2a\	-li-	-ri-	-cu-	-bi-	-ui-	-ri-	2cc#\	-li-	-ri-	-cu-	-bi-	-ui-	-ri-	2cc#\	-li-	-ri-	-cu-	-bi-	-ui-	-ri-
1A#	.	-a,	-a,	-lum,	-ta	-t(ur),	-a,	1e,<	-a,	-a,	-lum,	-ta,	-tur,	-a,	1c,<	-a,	-a,	-lum,	-ta,	-tur,	-a,	1a,<	-a,	-a	-lum	-ta,	-tur,	-a,	1cc#	-a	-a	-l(um)	-ta,	-tur	-a	1cc#	-a,	-a	-lum	-ta,	-tur,	-a,
=11	=11	=11	=11	=11	=11	=11	=11	=11	=11	=11	=11	=11	=11	=11	=11	=11	=11	=11	=11	=11	=11	=11	=11	=11	=11	=11	=11	=11	=11	=11	=11	=11	=11	=11	=11	=11	=11	=11	=11	=11	=11	=11
1D	.	lau-	Chri-	ſpar-	ad	Et	Sit	1f	Lau-	Chriſ-	ſpar-	ad	et	ſit	1d	Lau-	Chriſ-	ſpar-	ad	et	ſit	1f	Lau-	Chri-	ſpar-	Ad	et	ſit	1dd	lau-	Chriſ-	ſpar-	Ad	Et	ſit	1dd	lau-	Chriſ-	ſpar-	ad	et	ſit
1AA	.	-de	-ſti	-ſum	Vi-	fu-	no-	1e	-de	-ti	-ſum	Vi-	fu-	no-	1c	-de	-ti	-ſum	vi-	fu-	no-	1g	-de	-ſti	-ſum	Vi-	fu-	No-	1ccn	-de	-ti	-sum	Vi-	fu-	no-	1ccn	-de	-ti	-s(um)	vi-	fu-	no-
1BB-	.	fre-	mi-	cae-	-tae	-ga-	-bis	1d	fre-	Mi-	Cae-	-tae	-ga-	-bis	1B-	fre-	mi-	Cae-	-tae	-ga-	-bis	1f	fre-	mi-	Cae-	-tae	-ga-	-bis	1b-X	fre-	mi-	cae-	-tae	-ga-	-bis	1b-X	fre-	mi-	Cae-	-tae	-ga-	-bis
=12	=12	=12	=12	=12	=12	=12	=12	=12	=12	=12	=12	=12	=12	=12	=12	=12	=12	=12	=12	=12	=12	=12	=12	=12	=12	=12	=12	=12	=12	=12	=12	=12	=12	=12	=12	=12	=12	=12	=12	=12	=12	=12
!LO:SIC:v:l:s=po-:verse 7	!	!	!	!	!	!	!	!LO:SIC:v:l:s=po-:verse 7	!	!	!	!	!	!	!LO:SIC:v:l:s=po-:verse 7	!	!	!	!	!	!	!LO:SIC:v:l:s=po-:verse 7	!	!	!	!	!	!	!LO:SIC:v:l:s=po-:verse 7	!	!	!	!	!	!	!LO:SIC:v:l:s=po-:verse 7	!	!	!	!	!	!
0FF	.	-quen-	-les	-le-	por-	-tur	ex-	0c	-quen-	-les	-les-	por-	-tur	ex-	0c	-quen-	-les	-le-	por-	-tur	ex-	0f	-quen-	-les	-le-	por-	-tur	Ex-	0a	-quen-	-les	-le-	por-	-tur	E-	0cc	-quen-	-les	-le-	por-	-tur	ex-
1GG	.	-ta	in	-ſtis	-tum	dae-	-ul-	1B-	-ta	in	-tis	-tum	dae-	-ul-	1B-	-ta	in	-ſtis	-tum	Dae-	-ul-	1d	-ta	in	-ſtis	-tum	dae-	-ul-	0g	-ta	in	-ſtis	-tum	dae-	-xul-	1b-	-ta	in	-ſtis	-tum	Dae-	-ul-
=13	=13	=13	=13	=13	=13	=13	=13	=13	=13	=13	=13	=13	=13	=13	=13	=13	=13	=13	=13	=13	=13	=13	=13	=13	=13	=13	=13	=13	=13	=13	=13	=13	=13	=13	=13	=13	=13	=13	=13	=13	=13	=13
!	!	!	!	!	!	!	!	!	!	!	!	!	!	!	!LO:SIC:v:l:s=me-:verse 5	!	!	!	!	!	!	!	!	!	!	!	!	!	!	!	!	!	!	!	!	!	!	!	!	!	!	!
1.AA	.	Vi-	a-	me-	re-	-mo-	-ta-	0.A	Vi-	a-	me-	re-	-mo-	-ta-	0.A	Vi-	a-	mae-	re-	-mo-	-ta-	0.c	Vi-	a-	me-	re-	-mo-	-ta-	.	.	.	.	.	.	.	0.a	Vi-	a-	me-	re-	-mo-	-ta-
.	.	.	.	.	.	.	.	.	.	.	.	.	.	.	.	.	.	.	.	.	.	.	.	.	.	.	.	.	0f	Vi-	a-	me-	re-	-mo-	-ta-	.	.	.	.	.	.	.
2GG/	.	.	.	.	.	.	.	.	.	.	.	.	.	.	.	.	.	.	.	.	.	.	.	.	.	.	.	.	.	.	.	.	.	.	.	.	.	.	.	.	.	.
2AA/	.	.	.	.	.	.	.	.	.	.	.	.	.	.	.	.	.	.	.	.	.	.	.	.	.	.	.	.	.	.	.	.	.	.	.	.	.	.	.	.	.	.
2BB-/	.	.	.	.	.	.	.	.	.	.	.	.	.	.	.	.	.	.	.	.	.	.	.	.	.	.	.	.	.	.	.	.	.	.	.	.	.	.	.	.	.	.
=14	=14	=14	=14	=14	=14	=14	=14	=14	=14	=14	=14	=14	=14	=14	=14	=14	=14	=14	=14	=14	=14	=14	=14	=14	=14	=14	=14	=14	=14	=14	=14	=14	=14	=14	=14	=14	=14	=14	=14	=14	=14	=14
!	!	!	!	!	!	!	!	!	!	!	!	!	!	!	!LO:SIC:v:l:s=-di-:verse 5	!	!	!	!	!	!	!	!	!	!	!	!	!	!	!	!	!	!	!	!	!	!	!	!	!	!	!
0C	.	-gi-	-ci-	-di-	-de-	-ni-	-ti-	0G	-gi-	-ci-	-di-	-de-	-ni-	-ti-	0G	-gi-	-ci-	-sti-	-de-	-ni-	-ti-	0.c	-gi-	-ci-	-di-	-de-	-ni-	-ti-	0f	-gi-	-ci-	-di-	-de-	-ni-	-ti-	0g	-gi-	-ci-	-di-	-de-	-ni-	-ti-
!	!	!	!	!	!	!	!	!	!	!	!	!	!	!	!	!	!	!	!	!	!	!	!	!	!	!	!	!	!LO:TX:a:t=P:problem=# above	!	!	!	!	!	!	!	!	!	!	!	!	!
1C	.	.	.	.	.	.	.	1G	.	.	.	.	.	.	1G	.	.	.	.	.	.	.	.	.	.	.	.	.	1e#X	.	.	.	.	.	.	1g	.	.	.	.	.	.
=15	=15	=15	=15	=15	=15	=15	=15	=15	=15	=15	=15	=15	=15	=15	=15	=15	=15	=15	=15	=15	=15	=15	=15	=15	=15	=15	=15	=15	=15	=15	=15	=15	=15	=15	=15	=15	=15	=15	=15	=15	=15	=15
!	!	!	!	!	!	!	!	!	!	!	!	!	!	!	!LO:SIC:v:l:s=-cus:verse 5	!	!	!	!	!	!	!LO:TX:b:t=Amen.	!	!	!	!	!	!	!	!	!	!	!	!	!	!	!	!	!	!	!	!
0.FF;;	.	-li	-e	-cus	-unt	-um	-o	0.A	-li.	-e.	-cus.	-unt.	-um.	-o.	0.G	-li.	-e.	-cut.	-unt.	-um.	-o.	0.c	-li,	-e	-cus,	-unt	-um	-o. Amen	0.f	-li.	-e.	-cus	-unt.	-um	-o.	0.a	-li.	-e	-c(us).	-unt.	-um.	-o.
!!LO:LB:g=original
=16||	=16||	=16||	=16||	=16||	=16||	=16||	=16||	=16||;;	=16||	=16||	=16||	=16||	=16||	=16||	=16||;;	=16||	=16||	=16||	=16||	=16||	=16||	=16||;;	=16||	=16||	=16||	=16||	=16||	=16||	=16||;;	=16||	=16||	=16||	=16||	=16||	=16||	=16||;;	=16||	=16||	=16||	=16||	=16||	=16||
1C	.	2.Cu-	4.Tyr-	6.ſic	8.Cu-	10.Er-	12.Sit	1c	2.Cu-	4.Tyr-	6.Sic	8.Cu-	10.Er-	12.ſit	1c	2.Cu-	4.Tÿ-	6.Sic	8.Cu-	10.Er-	12.Sit	1e	2.Cu-	4.Ty-	6.ſic	8.Cu-	10.Er-	12.ſit	1g	2.Cu-	4.Tyr-	6.Sic	8.Cu-	10.Er-	12.Sit	1cc	2.Cu-	4.Tÿr-	6.Sic	8.Cu-	10.Er-	12.Sit
1C	.	-ius	-ran-	ſta-	-ius	-go	Tri-	1c	-ius	-ra-	Sta-	-ius	-go	Tri-	1c	-ius	-ran-	ſta-	-ius	-go	Tri-	1e	-ius	-ran-	ſta-	-ius	-go	Tri-	1g	-ius	-ran-	Sta-	-ius	-go	Tri-	1g	-ius	-ra-	Sta-	-ius	-go	Tri-
1C	.	be-	-ni[[s]]	-ni-	ad	fe-	-ni-	1c	be-	-ni[[s]]	-ni-	ad	fe-	-ni-	1c	be-	-ni	-ni-	ad	fe-	-ni-	1e	be-	-ni	-ni-	ad	fe-	-ni-	1g	be-	-ni	-ni-	ad	fe-	-ni-	1cc	be-	-ni	-ni-	ad	fe-	-ni-
=17	=17	=17	=17	=17	=17	=17	=17	=17	=17	=17	=17	=17	=17	=17	=17	=17	=17	=17	=17	=17	=17	=17	=17	=17	=17	=17	=17	=17	=17	=17	=17	=17	=17	=17	=17	=17	=17	=17	=17	=17	=17	=17
0F	.	-ni-	tru-	-ſla-	tac-	-lix	-ta-	0c	-nig-	tru-	-ſla-	tac-	-lix	-ta-	0c	-nig-	tru-	-ſla-	tac-	-lix	-ta-	0f	-ni-	tru-	-ſla-	tac-	-lix	-ta-	0a	-nig-	tru-	-ſla-	tac-	-lix	-ta-	0a	-nig-	tru-	-ſla-	tac-	-lix	-ta-
!	!	!	!	!	!	!	!	!LO:TX:a:t=P:problem=dźwięk poprawiany	!	!	!	!	!	!	!LO:TX:a:t=P:problem=dźwięk poprawiany	!	!	!	!	!	!	!	!	!	!	!	!	!	!	!	!	!	!	!	!	!LO:TX:a:t=P:problem=dźwięk poprawiany	!	!	!	!	!	!
1D	.	-gna	-cu-	-us	-tum	Cra-	-ti	1d	-na	-cu-	-u(s)	-tum	Cra-	-ti	1d	-na	-cu-	-(us)	-tum	Cra-	-ti	1e	-gna	-cu-	-us	-tum	Cra-	-ti	1g	-na	-cu-	-us	-tum	Cra-	-ti	1dd	-na	-cu-	-us	-tum	Cra-	-ti
=18	=18	=18	=18	=18	=18	=18	=18	=18	=18	=18	=18	=18	=18	=18	=18	=18	=18	=18	=18	=18	=18	=18	=18	=18	=18	=18	=18	=18	=18	=18	=18	=18	=18	=18	=18	=18	=18	=18	=18	=18	=18	=18
!LO:SIC:v:l:s=a-:verse 8	!	!	!	!	!	!	!	!LO:TX:a:t=P:problem=# above	!	!	!	!	!	!	!LO:TX:a:t=P:problem=# above	!	!	!	!	!	!	!LO:SIC:v:l:s=a-:verse 8	!	!	!	!	!	!	!LO:SIC:v:l:s=a-:verse 8	!	!	!	!	!	!	!LO:SIC:v:l:s=a-:verse 8	!	!	!	!	!	!
!	!	!	!	!	!	!	!	!LO:SIC:v:l:s=a-:verse 8	!	!	!	!	!	!	!LO:SIC:v:l:s=a-:verse 8	!	!	!	!	!	!	!	!	!	!	!	!	!	!	!	!	!	!	!	!	!LO:TX:a:t=P:problem=# above	!	!	!	!	!	!
1.G	.	gra-	-len-	Pon-	an-	-co-	glo-	1.B#X	gra-	-len-	Pon-	an-	-co-	glo-	1.B#X	gra-	-len-	Pon-	an-	-co-	glo-	1.d	gra-	-len-	Pon-	ah-	-co-	glo-	1.g	gra-	-len-	Pon-	ne-	-co-	glo-	1.b#X	gra-	-len-	Pon-	an-	-co-	glo-
!	!	!	!	!	!	!	!	!	!	!	!	!	!	!	!LO:TX:a:t=P:problem=# above	!	!	!	!	!	!	!	!	!	!	!	!	!	!LO:SIC:v:l:s=-nu-:verse 8	!	!	!	!	!	!	!LO:N:vis=2	!	!	!	!	!	!
2G\	.	-ti-	-ti-	-ti-	-nu-	-ui-	-ri-	2B#\	-ti-	-ti-	-ti-	-nu-	-ui-	-ri-	2B#X\	-ti-	-ni-	-ti-	-nu-	-ui-	-ri-	2d\	-ti-	-ti-	-ti-	-nu-	-ui-	-ri-	2g/	-ti-	-ti-	-ti-	-mu-	-vi-	-ri-	1b#	-ti-	-ti-	-ti-	-nu-	-ui-	-ri-
!LO:TX:a:t=P:global:problem=przecinki jako rozdzielacze słów	!	!	!	!	!	!	!	!	!	!	!	!	!	!	!	!	!	!	!	!	!	!	!	!	!	!	!	!	!	!	!	!	!	!	!	!	!	!	!	!	!	!
1G,<	.	-a,	-am,	-fex,	-li,	-a	-a,	1B#,<	-a,	-am,	-fex,	-li,	-a,	-a,	1B#,<	-a,	-am,	-fex,	-li,	-a,	-a,	1d,<	-a,	-am,	-fex,	-li,	-a,	-a	1g	-a,	-am,	-fex,	-li,	-a,	-a	.	.	.	.	.	.	.
.	.	.	.	.	.	.	.	.	.	.	.	.	.	.	.	.	.	.	.	.	.	.	.	.	.	.	.	.	.	.	.	.	.	.	.	2b#\	-a,	-am,	-fex,	-li,	-a	-a,
=19	=19	=19	=19	=19	=19	=19	=19	=19	=19	=19	=19	=19	=19	=19	=19	=19	=19	=19	=19	=19	=19	=19	=19	=19	=19	=19	=19	=19	=19	=19	=19	=19	=19	=19	=19	=19	=19	=19	=19	=19	=19	=19
0C	.	Sta-	qui	Tran-	Mor-	Sa-	Ut supra	0c	ſta-	qui	tran-	Mor-	Sa-	Laus	0c	ſta-	Qui	tran-	Mor-	Sa-	Laus	0e	Sta-	Qui	Tran-	mor-	Sa-	Ut supra	0g	Sta-	Qui	Tran-	Mor-	Sa-	Laus	0cc	Sta-	qui	tran-	Mor-	Sa-	Laus
!	!	!	!	!	!	!	!	!	!	!	!	!	!	!	!	!	!	!	!	!	!	!LO:TX:b:t=P:problem=# below	!	!	!	!	!	!	!	!	!	!	!	!	!	!	!	!	!	!	!	!
1AA	.	-ni-	dum	-ſit	-bi	-cro	.	1c	-ni-	dum	-sit	-bi	-cro	ho-	1c	-ni-	dum	-sit	-bi	-cro	ho-	1f#X	-ni-	dum	-ſit	-bi	-cro	.	1a	-ni-	dum	-ſit	-bi	-cro	ho-	1cc	-ni-	dum	-ſit	-bi	-cro	ho-
=20	=20	=20	=20	=20	=20	=20	=20	=20	=20	=20	=20	=20	=20	=20	=20	=20	=20	=20	=20	=20	=20	=20	=20	=20	=20	=20	=20	=20	=20	=20	=20	=20	=20	=20	=20	=20	=20	=20	=20	=20	=20	=20
1GG	.	-sla-	con-	ad	fu-	do-	.	1d	-sla-	Con-	ad	fu-	do-	-nor	1d	-sla-	Conſ-	ad	fu-	do-	-nor	1g	-ſla-	con-	ad	fu-	do-	.	1b-	-ſla-	conſ-	ad	fu-	do-	-nor	1dd	-ſla-	Con-	ad	fu-	do-	-nor
1GG	.	-i	-ſtan-	cae-	-gan-	-ta-	.	1d	-i	-ſtan-	cae-	-gan-	-ta-	iu-	1d	-i	-tan-	Cae-	-gan-	-ta-	iu-	1g	-i	-ſtan-	Cae-	-gan-	-ta-	.	1b-	-i	-tan-	cae-	-gan-	-ta-	iu-	1dd	-i	-ſtan-	Cae-	-gan-	-ta-	iu-
1BB-	.	Pon-	-ter	-li	-tur	-ta	.	1d	Pon-	-ter	-li	-tur	-ta	-bi-	1d	Pon-	-ter	-li	-tur	-ta	-bi-	1d	Pon-	-ter	-li	-tur	-ta	.	1g	Pon-	-ter	-li	-tur	-ta	-bi-	1dd	Pon-	-ter	-li	-tur	-ta	-bi-
=21	=21	=21	=21	=21	=21	=21	=21	=21	=21	=21	=21	=21	=21	=21	=21	=21	=21	=21	=21	=21	=21	=21	=21	=21	=21	=21	=21	=21	=21	=21	=21	=21	=21	=21	=21	=21	=21	=21	=21	=21	=21	=21
1C	.	-ti-	ar-	Cu-	tur-	cor-	.	(2c\	-ti-	ar-	Cu-	tur-	Cor-	-la-	(2c\	-ti-	ar-	Cu-	tur-	Cor-	-la-	1e-X	-ti-	ar-	Cu-	tur-	cor-	.	0g	-ti-	ar-	Cu-	tur-	cor-	-la-	(2cc\	-ti-	ar-	Cu-	tur-	Cor-	-la-
.	.	.	.	.	.	.	.	2B-\)	.	.	.	.	.	.	2B-\)	.	.	.	.	.	.	.	.	.	.	.	.	.	.	.	.	.	.	.	.	2b-\)	.	.	.	.	.	.
[1.D	.	-fi-	-gu-	-ri-	-gi-	-po-	.	1.A	-fi-	-gu-	-ri-	-gi-	-po-	-ti-	1.A	-fi-	-gu-	-ri-	-gi-	-po-	.	1.d	-fi-	-gu-	-ri-	-gi-	-po-	.	.	.	.	.	.	.	.	1.a	-fi-	-gu-	-ri-	-gi-	-po-	-ti-
!	!	!	!	!	!	!	!	!	!	!	!	!	!	!	!	!	!	!	!	!	!	!	!	!	!	!	!	!	!LO:TX:a:t=P:problem=# above	!	!	!	!	!	!	!	!	!	!	!	!	!
.	.	.	.	.	.	.	.	.	.	.	.	.	.	.	.	.	.	.	.	.	.	.	.	.	.	.	.	.	1f#X	-fi-	-gu-	-ri-	-gi-	-po-	-ti-	.	.	.	.	.	.	.
2D/]	.	.	.	.	.	.	.	2A/	.	.	.	.	.	.	2A/	.	.	.	.	.	-ti-	2d\	.	.	.	.	.	.	.	.	.	.	.	.	.	2a\	.	.	.	.	.	.
=22	=22	=22	=22	=22	=22	=22	=22	=22	=22	=22	=22	=22	=22	=22	=22	=22	=22	=22	=22	=22	=22	=22	=22	=22	=22	=22	=22	=22	=22	=22	=22	=22	=22	=22	=22	=22-	=22	=22	=22	=22	=22	=22
!	!	!	!	!	!	!	!	!LO:TX:a:t=P:problem=# above	!	!	!	!	!	!	!LO:TX:b:t=P:problem=# below	!	!	!	!	!	!	!	!	!	!	!	!	!	!	!	!	!	!	!	!	!LO:TX:b:t=P:problem=# below	!	!	!	!	!	!
0.GG	.	-cis.	-it,	-am,	-di,	-re,	.	0.B#X;;	-cis.	-it,	-am.	-di.	-re.	-o.	0.B#X	-cis.	-it.	-am,	-di:	-re,	-o.	0.d	-cis,	-it,	-am,	-di,	-re,	.	0.g	-cis.	-it,	-am,	-di	-re,	-o,	0.b#X	-cis.	-it.	-am,	-di,	-re,	-o,
=23||	=23||	=23||	=23||	=23||	=23||	=23||	=23||	=23||	=23||	=23||	=23||	=23||	=23||	=23||	=23||;;	=23||	=23||	=23||	=23||	=23||	=23||	=23||;;	=23||	=23||	=23||	=23||	=23||	=23||	=23||;	=23||	=23||	=23||	=23||	=23||	=23||	=23||;;	=23||	=23||	=23||	=23||	=23||	=23||
!	!	!	!	!	!	!	!	!	!	!	!	!	!	!	!	!	!	!	!	!	!	!	!	!	!	!	!	!	!LO:TX:a:t=P:problem=# above	!	!	!	!	!	!	!LO:TX:a:t=P:problem=# above	!	!	!	!	!	!
1G	.	Paſ-	Mar-	Ut	Ad	De-	.	1d	Paſ-	Mar-	Ut	Ad	De-	De	1d	Paſ-	Mar-	Ut	Ad	De-	De	1g	Paſ-	Mar-	Ut	Ad	De-	.	1b#X	Paſ-	Mar-	Ut	Ad	De-	De	1b#X	Paſ-	Mar-	Ut	Ad	De-	De
!	!	!	!	!	!	!	!	!	!	!	!	!	!	!	!	!	!	!	!	!	!	!	!	!	!	!	!	!	!LO:TX:a:t=P:problem=# above	!	!	!	!	!	!	!LO:TX:a:t=P:problem=# above	!	!	!	!	!	!
1G	.	-si-	-ty-	a-	lo-	-um	.	1d	-si-	-tÿ-	a-	Lo-	-um	Mar-	1d	-si-	-tÿ-	a-	Lo-	-um	Mar-	1g	-si-	-ty-	a-	lo-	-um	.	1b#X	-si-	-ty-	a-	lo-	-u(m)	Mar-	1b#X	-si-	-ty-	a-	lo-	-um	Mar-
!	!	!	!	!	!	!	!	!	!	!	!	!	!	!	!	!	!	!	!	!	!	!LO:SIC:v:l:s=-rii:verse 4	!	!	!	!	!	!	!LO:TX:a:t=P:problem=# above	!	!	!	!	!	!	!LO:TX:a:t=P:problem=# above	!	!	!	!	!	!
1E	6\	-o-	-ri-	-pud	-cum	qui	.	1e	-o-	-ri-	-pud	-cum	qui	-tÿ-	1d	-o-	-ri-	-pud	-cum	qui	-tÿ-	1g	-o-	-ry	-pud	-cum	qui	.	1cc#X	-o-	-ri-	-pud	-cum	qui	-ty-	1cc#X	-o-	-ri-	-pud	-cum	qui	-tÿ-
=24	=24	=24	=24	=24	=24	=24	=24	=24	=24	=24	=24	=24	=24	=24	=24	=24	=24	=24	=24	=24	=24	=24	=24	=24	=24	=24	=24	=24	=24	=24	=24	=24	=24	=24	=24	=24	=24	=24	=24	=24	=24	=24
0D	.	-nis	-i	De-	San-	fe-	.	0f	-nis	-i	De-	ſan-	fe-	-ris	0f	-nis	-i	De-	ſan-	fe-	-ris	0a	-nis	.	De-	ſan-	fe-	.	0dd	-nis	-i	De-	ſan-	fe-	-ris	(1.ff	-nis	-i	De-	ſan-	fe-	-ris
!	!	!	!	!	!	!	!	!	!	!	!	!	!	!	!	!	!	!	!	!	!	!	!	!	!	!	!	!	!	!	!	!	!	!	!	!LO:TX:a:t=P:problem=dźwięk poprawiany	!	!	!	!	!	!
.	.	.	.	.	.	.	.	.	.	.	.	.	.	.	.	.	.	.	.	.	.	.	.	.	.	.	.	.	.	.	.	.	.	.	.	2ee\)	.	.	.	.	.	.
!	!	!	!	!	!	!	!	!	!	!	!	!	!	!	!	!	!	!	!	!	!	!	!	!	!	!	!	!	!LO:TX:a:t=P:problem=♭ above	!	!	!	!	!	!	!LO:TX:a:t=P:problem=dźwięk poprawiany	!	!	!	!	!	!
1G	6 5	in-	Vic-	-um	-cti	-cit	.	1d	in-	Vic-	-um	-cti	-cit	Vic-	1d	in-	Vic-	-um	-cti	-cit	Vic-	1g	in-	Vic-	-um	-cti	-cit	.	1b-X	in-	Vic-	-um	-cti	-cit	Vic-	1dd	in-	Vic-	-um	-cti	-cit	Vic-
=25	=25	=25	=25	=25	=25	=25	=25	=25	=25	=25	=25	=25	=25	=25	=25	=25	=25	=25	=25	=25	=25	=25	=25	=25	=25	=25	=25	=25	=25	=25	=25	=25	=25	=25	=25	=25	=25	=25	=25	=25	=25	=25
0A	.	-sig-	-to-	O-	tu-	om-	.	0d	-ſig-	-to-	o-	tu-	Om-	-to-	0d	-ſig-	-to-	o-	tu-	om-	-to-	0e	-ſig-	-to-	o-	tu-	om-	.	0a	-ſig-	-to-	o-	tu-	om-	-to-	0dd	-sig-	-to-	o-	tu-	Om-	-to-
.	4	.	.	.	.	.	.	.	.	.	.	.	.	.	.	.	.	.	.	.	.	.	.	.	.	.	.	.	.	.	.	.	.	.	.	.	.	.	.	.	.	.
.	#3r	.	.	.	.	.	.	.	.	.	.	.	.	.	.	.	.	.	.	.	.	.	.	.	.	.	.	.	.	.	.	.	.	.	.	.	.	.	.	.	.	.
!	!	!	!	!	!	!	!	!LO:TX:a:t=P:problem=# above	!	!	!	!	!	!	!LO:TX:a:t=P:problem=# above	!	!	!	!	!	!	!	!	!	!	!	!	!	!	!	!	!	!	!	!	!LO:TX:a:t=P:problem=# above	!	!	!	!	!	!
1A	.	-ni-	-ri-	-pi-	-mu-	-ni-	.	1c#X	-ni-	-ri-	-pi-	-mu-	-ni-	-ri-	1c#X	-ni-	-ri-	-pi-	-mu-	-ni-	-ri-	1e	-ni-	-ri-	-pi-	-mu-	-ni-	.	1a	-ni-	-ri-	-pi-	-mu-	-ni-	-ri-	1cc#X	-ni-	-ri-	-pi-	-mu-	-ni-	-ri-
=26	=26	=26	=26	=26	=26	=26	=26	=26	=26	=26	=26	=26	=26	=26	=26	=26	=26	=26	=26	=26	=26	=26	=26	=26	=26	=26	=26	=26	=26	=26	=26	=26	=26	=26	=26	=26	=26	=26	=26	=26	=26	=26
!	!	!	!	!	!	!	!	!	!	!	!	!	!	!	!	!	!	!	!	!	!	!LO:TX:b:t=P:problem=# below	!	!	!	!	!	!	!LO:SIC:v:l:s=-am:verse 4	!	!	!	!	!	!	!	!	!	!	!	!	!
0.D	#	-a	-am	-fex,	-li	-a	.	0.d,<	-a,	-am,	-fex	-li,	-a	-a,	0.d,<	-a,	-am,	-fex	-li	-a	-a,	0.f#	-a	-am,	-fex,	-li,	-a	.	0.b-	-a,	-an,	-fex	-li,	-a	-a	0.dd	-a	-am	-fex,	-li,	-a	-a,
=27	=27	=27	=27	=27	=27	=27	=27	=27	=27	=27	=27	=27	=27	=27	=27	=27	=27	=27	=27	=27	=27	=27	=27	=27	=27	=27	=27	=27	=27	=27	=27	=27	=27	=27	=27	=27	=27	=27	=27	=27	=27	=27
0BB-	.	Si-	Mem-	No-	mul-	Be-	.	[1d	ſig-	Mem-	No-	Mul-	Be-	Sit	[1d	ſig-	Mem-	No-	mul-	Be-	ſit	0f	ſig-	Mem-	no-	mul-	Be-	.	0b-	ſig-	Mem-	no-	Mul-	Be-	ſit	1dd	ſig-	mem-	No-	mul-	Be-	ſit
.	.	.	.	.	.	.	.	1d]	-nis	-bra	-bis	-ti	-ne-	no-	1d]	-nis	-bra-	-bis	-ti	-ne-	no-	.	.	.	.	.	.	.	.	.	.	.	.	.	.	1dd	-nis	-bra-	-bis	-ti	-ne-	no-
1FF	.	-gnis	-bra-	-bis	-ti	-ne-	.	1c	ful-	-tim	im-	Cu-	-dic	-bis	1c	ful-	-tim	im-	Cu-	-dic	-bis	1f	-nis	-bra-	-bis	-ti	-ne-	.	1a	-nis	-bra-	-bis	-ti	-ne-	no-	1cc	ful-	-tim	im-	Cu-	-dic	-bis
=28	=28	=28	=28	=28	=28	=28	=28	=28	=28	=28	=28	=28	=28	=28	=28	=28	=28	=28	=28	=28	=28	=28	=28	=28	=28	=28	=28	=28	=28	=28	=28	=28	=28	=28	=28	=28	=28	=28	=28	=28	=28	=28
!	!	!	!	!	!	!	!	!	!	!	!	!	!	!	!LO:TX:a:t=P:problem=♭ above	!	!	!	!	!	!	!	!	!	!	!	!	!	!	!	!	!	!	!	!	!LO:SIC:v:l:s=-gent:verse 1	!	!	!	!	!	!
!	!	!	!	!	!	!	!	!	!	!	!	!	!	!	!LO:SIC:v:l:s=-gent:verse 2	!	!	!	!	!	!	!	!	!	!	!	!	!	!	!	!	!	!	!	!	!	!	!	!	!	!	!
1GG	.	ful-	-tim	im-	cu-	-dic	.	0B-	-get	Cae-	-plo-	-ran-	Om-	e-	0B-X	-get	Cae-	-plo-	-ran-	Om-	e-	1d	ful-	-tim	im-	cu-	-dic	.	1g	ful-	-tim	im-	cu-	-dic	-bis	0b-	-get	Cae-	-plo-	-ran-	Om-	e-
1GG	.	-gent	cae-	-plo-	-ran-	om-	.	.	.	.	.	.	.	.	.	.	.	.	.	.	.	1d	-gent	cae-	-plo-	-ran-	om-	.	1g	-gent	cae-	-plo-	-ran-	om-	E-	.	.	.	.	.	.	.
1AA	.	mi-	-ſus	-ret	-tur	-ni	.	1B-	mi-	-ſus	-ret	-tur	-ni	-xul-	1B-	mi-	-ſus	-ret	-tur	-ni	-xul-	1c	mi-	-ſus	-ret	-tur	-ni	.	[>1f	mi-	-ſus	-ret	-tur	-ni	-xul-	1b-	mi-	-ſus	-ret	-tur	-ni	-xul-
=29	=29	=29	=29	=29	=29	=29	=29	=29	=29	=29	=29	=29	=29	=29	=29	=29	=29	=29	=29	=29	=29	=29	=29	=29	=29	=29	=29	=29	=29	=29	=29	=29	=29	=29	=29	=29	=29	=29	=29	=29	=29	=29
!	!	!	!	!	!	!	!	!	!	!	!	!	!	!	!	!	!	!	!	!	!	!	!	!	!	!	!	!	!	!	!	!	!	!	!	!LO:SIC:v:l:s=lan-:verse 8	!	!	!	!	!	!
0C	.	-ri-	me-	Ve-	lan-	tem-	.	1A	-ri-	me-	Ve-	Lan-	tem-	-ta-	1A	-ri-	me-	Ve-	Lan-	tem-	-ta-	0c	-ri-	me-	Ve-	lan-	tem-	.	1f]	.	.	.	.	.	.	1a	-ri-	me-	Ve-	tur-	tem-	-ta-
!	!	!	!	!	!	!	!	!	!	!	!	!	!	!	!	!	!	!	!	!	!	!	!	!	!	!	!	!	!	!	!	!	!	!	!	!LO:SIC:v:l:s=-gui-:verse 8	!	!	!	!	!	!
.	.	.	.	.	.	.	.	0G	-fi-	-ru-	-ni-	-gui-	-po-	-ti-	0G	-fi-	-ru-	-ni-	-gui-	-po-	-ti-	.	.	.	.	.	.	.	1.e	-ri-	me-	Ve-	lan-	tem-	-ta-	0g	-fi-	-ru-	-ni-	-gi-	-po-	ti-
1C	.	-fi-	-ru-	-ni-	-gui-	-po-	.	.	.	.	.	.	.	.	.	.	.	.	.	.	.	1c	-fi-	-ru-	-ni-	-gui-	-po-	.	.	.	.	.	.	.	.	.	.	.	.	.	.	.
.	.	.	.	.	.	.	.	.	.	.	.	.	.	.	.	.	.	.	.	.	.	.	.	.	.	.	.	.	2e/	-fi-	-ru-	-ni-	-gui-	-po-	ti-	.	.	.	.	.	.	.
=30	=30	=30	=30	=30	=30	=30	=30	=30	=30	=30	=30	=30	=30	=30	=30	=30	=30	=30	=30	=30	=30	=30	=30	=30	=30	=30	=30	=30	=30	=30	=30	=30	=30	=30	=30	=30	=30	=30	=30	=30	=30	=30
!	!	!	!	!	!	!	!	!	!	!	!	!	!	!	!LO:TX:b:t=Amen&colon;\nJeſus\nMaria\nJoseph.	!	!	!	!	!	!	!	!	!	!	!	!	!	!	!	!	!	!	!	!	!	!	!	!	!	!	!
0.FF;;	.	-cis	-it.	-am	-di.	-re Amen.	.	0.A;;	-cis.	-it.	-am.	-di.	-re.	-o. Amen.	0.A	-cis.	-it.	-am.	-di.	-re.	-o.	0.c	-cis	-it	-am	-di	-re	Amen	0.f	-cis	-it	-am.	-di	-re	-o. Amen Amen	0.a;;	-cis.	-it.	-am.	-di.	-re.	-o. Amen.
==	==	==	==	==	==	==	==	==	==	==	==	==	==	==	==;;	==	==	==	==	==	==	==;;	==	==	==	==	==	==	==;;	==	==	==	==	==	==	==	==	==	==	==	==	==
*-	*-	*-	*-	*-	*-	*-	*-	*-	*-	*-	*-	*-	*-	*-	*-	*-	*-	*-	*-	*-	*-	*-	*-	*-	*-	*-	*-	*-	*-	*-	*-	*-	*-	*-	*-	*-	*-	*-	*-	*-	*-	*-
!!!system-decoration: [(s1,s2,s3,s4,s5,s6)]
!!!RDF**kern: > = above
!!!RDF**kern: < = below
!!!AIN: 1 alto 1 bass 2 tenor 2 vox
!!!ENC: Marta Lawrence
!!!END: 2021-02-10
!!!ENC: Tomasz Grochalski
!!!END: 2021-01-20
